X:1
T:Derwentwater's Farewell (2)
M:4/4
L:1/8
K:C
 C2| D2E-G A2D-F| E2E-D C2 G2| A2 c2 d2c-B| A4 z2| G2|A-Bc-A d2D-F|\
 E2 ED C2 E2|D-EG-c A2G-E| D4 z2||
